X:7905
T:Jenny Picking Cockles
C:Traditional
S:irtrad-l, L. Sanger, 10/97
N:As played by Neillidh Boyle
A:Dungloe, Co. Donegal, Ireland
R:Reel
M:C|
Z:Transcribed by Larry Sanger from the old 78 rpm record of N. Boyle.
K:C
~g2||fagf dc~c2|Bcde {a}fe{a}+A2.f2+|~g2fg dc~c2|Acfc AG~G2|+G,G+B~g2
dc~c2|Bcde {a}fe{a}+A2.f2+|~g2fg dc~c2|Acfc AG~G2|+G,G+B~g2 dc~c2|Bcde
{a}fe{a}+A2.f2+|~g2fg dc~c2|Acfc AG~G2|+G,G+B~g2 dc~c2|Bcde
{a}fe{a}+A2.f2+|~g2fg dc~c2|Acfc AG~G2||:\
K:G
|:dg~g2 bgag|fd~d2 +df+d+dg++df+|+d2g2++dg++df+ gbag|fdcd BG~G2|dg~g2
bgag|~f2ga fddg|bg~a2 gfga|fdcA +G,G+B~g2:|


